X:38
T:Because He Was a Bonny Lad
R:Reel
S:Bruce & Stokoe - Northumbrian Minstrelsy
M:C
L:1/8
K:G
d|B>Agg e/f/g d>B|c>edB cAAc|B>Agg e/f/g d>B|c>edc BGG:|
|:d|BGdG eGdG|c>edB cAAc|BGdB eGdG|c>edc BGG:|

